packages/core/src/svgs/tokens/branded/TIG.svg

<svg width="24" height="24" viewBox="0 0 24 24" fill="none" xmlns="http://www.w3.org/2000/svg">
<path d="M11.3849 11.3713H11.3731V11.3595C12.9379 8.61812 14.4911 5.87086 16.0676 3.13538C16.0912 3.08832 16.1147 3.04126 16.1265 2.99419L15.8205 2.97067L17.0736 2L16.9559 3.55894L16.6912 3.31774C15.0073 6.05913 13.2377 8.74692 11.3849 11.3772V11.3713ZM15.1675 4.18251C14.95 4.46489 14.6911 4.51783 14.3676 4.38253C12.7193 3.67515 10.8853 3.52439 9.14361 3.95308C8.52004 4.10604 7.90824 4.31782 7.31995 4.58254C7.08465 4.68844 6.8258 4.7708 6.54343 4.82961C6.43754 4.85315 6.31401 4.88844 6.20811 4.89433C7.09641 6.62974 8.03176 8.35928 8.85535 10.13C7.8141 8.25926 6.73756 6.41208 5.67277 4.55901C5.65514 4.53548 5.69043 4.52372 5.70808 4.53548C5.86103 4.61195 6.02575 4.64137 6.20223 4.62372C6.39636 4.60608 6.5905 4.57077 6.77285 4.51783C7.10818 4.42958 7.39643 4.3237 7.64938 4.21192C8.55328 3.79296 9.51182 3.50382 10.4967 3.35304C11.2084 3.25892 11.8085 3.22951 12.2968 3.2648C13.291 3.34128 14.2852 3.71777 15.1675 4.18251Z" fill="url(#paint0_linear_364_9712)"/>
<path d="M19.7855 11.3947C19.7914 11.9831 19.8444 12.5596 19.8914 13.1479C19.9149 13.4125 20.0266 13.9538 20.2384 14.1126C18.2186 14.0665 16.2077 13.8302 14.2322 13.4066C16.0734 13.4066 17.9265 13.7597 19.7679 13.7715C19.7973 13.7715 19.8208 13.742 19.8091 13.7126C19.7098 13.4687 19.6503 13.2105 19.6326 12.9479C19.5737 12.4419 19.6326 11.9184 19.5561 11.4125C19.3376 9.64586 18.5438 8.0003 17.2971 6.72975C17.1382 6.57092 16.9441 6.33561 16.9147 6.13559C16.9029 6.01794 16.8558 5.92969 16.8324 5.81204C16.8265 5.77674 16.803 6.15912 16.7912 6.20029C16.7088 6.43561 16.644 6.61798 16.4852 6.8474C16.1536 7.29402 15.8826 7.78261 15.6793 8.30044C15.5499 8.62988 15.4323 8.95931 15.3205 9.30053C14.8969 10.5595 13.885 11.5947 13.6145 12.9067C13.2498 14.2037 13.2539 15.5768 13.6263 16.8716C13.9623 18.0604 14.6925 19.0997 15.6969 19.8189C15.8734 19.9484 16.0675 20.0836 16.2734 20.213C16.3382 20.2542 16.4029 20.319 16.4558 20.4071C16.6265 20.6601 16.0793 20.6248 15.9735 20.6189C15.4146 20.5895 14.8792 20.4895 14.3675 20.3248C14.1557 20.2601 13.938 20.1955 13.7498 20.1072C14.4541 20.6299 15.2626 20.995 16.1205 21.1779C14.8264 21.8249 13.4557 21.9132 12.0203 21.9896C11.6556 22.0131 11.2907 21.9956 10.9319 21.9485C10.6025 21.9014 10.3319 21.6602 10.4084 21.3131C10.4614 21.0778 10.4789 20.8307 10.4671 20.5718C10.3879 19.897 10.1345 19.2544 9.73181 18.7071C9.52001 18.3836 9.26126 18.1834 8.86708 18.2246C8.37514 18.3122 7.917 18.534 7.54345 18.8659C6.93752 19.3365 6.32572 19.8071 5.64333 20.1719C5.29035 20.3602 4.87856 20.4719 4.48441 20.5718C4.31381 20.6073 4.14322 20.6189 3.96673 20.5955C3.76671 20.5661 3.74907 20.2542 3.76671 20.1072C3.82554 19.5189 4.00791 18.8659 4.29617 18.3424L5.07269 16.9011C5.59037 15.9481 6.59045 14.7009 7.61405 14.3244C7.7317 14.2832 7.79053 14.4126 7.79642 14.5009C7.83171 14.9127 7.38462 15.395 7.09048 15.6186C6.58456 16.0068 6.17866 16.4186 6.11983 17.0716C6.07372 17.3929 5.9416 17.6959 5.73745 17.9482C5.49037 18.3012 5.26093 18.6776 5.03151 19.0424C5.53155 18.5129 5.9904 17.907 6.45514 17.3364C6.94929 16.7246 7.30814 16.0833 7.96113 15.6009C8.21408 15.4244 8.49647 15.3068 8.77296 15.1598C9.00826 15.0421 9.57299 14.6303 9.17297 14.3362C8.93768 14.1656 8.64942 14.0655 8.30821 14.042C7.88465 14.0008 7.56698 13.9185 7.3199 13.5597C7.0752 13.1974 6.9385 12.773 6.92576 12.336C6.92576 12.1007 6.96694 11.8654 7.06106 11.6536C7.18486 11.3644 7.41527 11.1341 7.70446 11.0103C7.99367 10.8865 8.31942 10.8788 8.61411 10.9889C9.00238 11.1183 9.24946 11.4771 9.67306 11.5419L9.96722 11.6006C10.026 11.6183 10.0553 11.6595 10.0496 11.7183C10.0142 12.1537 10.379 12.3066 10.4614 12.7125C10.4848 12.8655 10.3731 13.0125 10.2907 13.1361C10.1495 13.3597 10.4143 13.3714 10.4555 13.5244C10.5319 13.8538 10.3436 14.3362 10.2848 14.6656C10.5201 14.3715 10.6084 13.9067 10.7378 13.5713C10.926 13.0655 11.1614 12.6478 11.4909 12.236C11.8556 11.7949 12.3614 11.4654 12.7085 11.0125C13.2439 10.2947 13.8263 9.62407 14.2674 8.84755C14.591 8.25926 14.8676 7.69453 15.0792 7.13566C15.2146 6.79446 15.4675 6.51797 15.65 6.19442C15.7676 5.98263 15.8852 5.73556 15.9852 5.47084C16.05 5.30613 16.2381 5.01787 16.4558 5.16494C17.8089 6.10617 18.7501 7.32979 19.2738 8.84166C19.5502 9.6476 19.7208 10.4947 19.7796 11.3947H19.7855Z" fill="url(#paint1_linear_364_9712)"/>
<defs>
<linearGradient id="paint0_linear_364_9712" x1="16.7078" y1="7.38478" x2="7.59688" y2="19.987" gradientUnits="userSpaceOnUse">
<stop stop-color="#0149DC"/>
<stop offset="1" stop-color="#920BBD"/>
</linearGradient>
<linearGradient id="paint1_linear_364_9712" x1="16.7077" y1="7.38478" x2="7.59683" y2="19.987" gradientUnits="userSpaceOnUse">
<stop stop-color="#0149DC"/>
<stop offset="1" stop-color="#920BBD"/>
</linearGradient>
</defs>
</svg>

<svg xmlns="http://www.w3.org/2000/svg" width="24" height="24" fill="none" viewBox="0 0 24 24">
    <path fill="url(#TIG__a)" d="M11.385 11.371h-.012v-.011c1.565-2.742 3.118-5.49 4.695-8.225a.7.7 0 0 0 .058-.14l-.306-.024L17.075 2l-.118 1.559-.265-.241a154 154 0 0 1-5.306 8.06zm3.783-7.188c-.218.282-.477.335-.8.2a8.25 8.25 0 0 0-5.224-.43c-.624.153-1.236.365-1.824.63a3.8 3.8 0 0 1-.777.247c-.105.023-.229.058-.335.064.888 1.736 1.824 3.465 2.647 5.236-1.04-1.87-2.117-3.718-3.182-5.571-.018-.024.017-.035.035-.024a.9.9 0 0 0 .494.089c.194-.018.388-.053.57-.106.336-.088.624-.194.877-.306a10.6 10.6 0 0 1 2.848-.859q1.067-.14 1.8-.088c.994.076 1.988.453 2.87.918"/>
    <path fill="url(#TIG__b)" d="M19.786 11.395c.005.588.058 1.165.105 1.753.024.264.136.806.347.965a32 32 0 0 1-6.006-.706c1.841 0 3.695.353 5.536.364.03 0 .053-.029.041-.058a2.5 2.5 0 0 1-.176-.765c-.06-.506 0-1.03-.077-1.536a8.1 8.1 0 0 0-2.259-4.682c-.159-.16-.353-.394-.382-.594-.012-.118-.06-.206-.083-.324-.006-.035-.029.347-.04.388-.083.236-.148.418-.307.647A6.3 6.3 0 0 0 15.68 8.3c-.13.33-.247.66-.359 1-.423 1.26-1.435 2.295-1.706 3.607a7.25 7.25 0 0 0 .012 3.965 5.45 5.45 0 0 0 2.07 2.947c.177.13.371.265.577.394.065.041.13.106.183.194.17.253-.377.218-.482.212a6.3 6.3 0 0 1-1.607-.294c-.211-.065-.429-.13-.617-.218a6.1 6.1 0 0 0 2.37 1.07c-1.294.648-2.664.736-4.1.813a5.6 5.6 0 0 1-1.088-.041c-.33-.048-.6-.289-.524-.636.053-.235.07-.482.06-.741a3.9 3.9 0 0 0-.736-1.865c-.212-.323-.47-.524-.865-.482a2.7 2.7 0 0 0-1.324.64c-.605.472-1.217.942-1.9 1.307-.353.188-.764.3-1.159.4-.17.035-.34.047-.517.024-.2-.03-.218-.342-.2-.489a4.8 4.8 0 0 1 .53-1.765l.776-1.44c.517-.954 1.517-2.201 2.541-2.578.118-.04.177.089.182.177.036.412-.411.894-.706 1.118-.505.388-.911.8-.97 1.453a1.8 1.8 0 0 1-.383.876c-.247.353-.476.73-.705 1.094.5-.53.958-1.135 1.423-1.706.494-.611.853-1.253 1.506-1.735.253-.177.535-.294.812-.441.235-.118.8-.53.4-.824a1.63 1.63 0 0 0-.865-.294c-.423-.041-.741-.123-.988-.482a2.3 2.3 0 0 1-.394-1.224c0-.235.04-.47.135-.682a1.224 1.224 0 0 1 1.553-.665c.388.13.635.488 1.06.553l.293.059q.09.027.083.117c-.036.436.329.589.411.995.024.153-.088.3-.17.423-.142.224.123.235.165.388.076.33-.112.812-.171 1.142.235-.295.323-.76.453-1.095a4.7 4.7 0 0 1 .753-1.335c.365-.441.87-.77 1.218-1.224.535-.717 1.117-1.388 1.558-2.164.324-.589.6-1.153.812-1.712.136-.342.388-.618.571-.942.118-.211.235-.458.335-.723.065-.165.253-.453.47-.306q2.032 1.41 2.819 3.677a9.8 9.8 0 0 1 .506 2.553z"/>
    <defs>
        <linearGradient id="TIG__a" x1="16.708" x2="7.597" y1="7.385" y2="19.987" gradientUnits="userSpaceOnUse">
            <stop stop-color="#0149DC"/>
            <stop offset="1" stop-color="#920BBD"/>
        </linearGradient>
        <linearGradient id="TIG__b" x1="16.708" x2="7.597" y1="7.385" y2="19.987" gradientUnits="userSpaceOnUse">
            <stop stop-color="#0149DC"/>
            <stop offset="1" stop-color="#920BBD"/>
        </linearGradient>
    </defs>
</svg>
